resources/icons/16px/locomotive.svg

<svg width="16" height="16" viewBox="0 0 16 16" fill="none" xmlns="http://www.w3.org/2000/svg">
<path fill-rule="evenodd" clip-rule="evenodd" d="M0 2V14H1.7058C1.88738 14 2.05468 13.8988 2.14858 13.7434C3.99558 10.6867 5.95229 12.3239 6.85019 13.7474C6.94707 13.901 7.11262 14 7.2942 14H7.7058C7.88738 14 8.05468 13.8988 8.14858 13.7434C9.99558 10.6867 11.9523 12.3239 12.8502 13.7474C12.9471 13.901 13.1126 14 13.2942 14H14.2757C14.543 14 14.6769 13.6769 14.4879 13.4879L13 12C17.4 9.6 14.8333 7 13 6V4L14.1464 2.85355C14.4614 2.53857 14.2383 2 13.7929 2H10.2071C9.76165 2 9.53857 2.53857 9.85355 2.85355L11 4V6H8V2C8 1.44772 7.55228 1 7 1H1C0.447715 1 0 1.44772 0 2ZM1 7H4V2H1V7ZM7 7H5V2H7V7Z" fill="#111418"/>
<path fill-rule="evenodd" clip-rule="evenodd" d="M4.5 16C5.32843 16 6 15.3284 6 14.5C6 13.6716 5.32843 13 4.5 13C3.67157 13 3 13.6716 3 14.5C3 15.3284 3.67157 16 4.5 16ZM4.5 15C4.77614 15 5 14.7761 5 14.5C5 14.2239 4.77614 14 4.5 14C4.22386 14 4 14.2239 4 14.5C4 14.7761 4.22386 15 4.5 15Z" fill="#111418"/>
<path fill-rule="evenodd" clip-rule="evenodd" d="M10.5 16C11.3284 16 12 15.3284 12 14.5C12 13.6716 11.3284 13 10.5 13C9.67157 13 9 13.6716 9 14.5C9 15.3284 9.67157 16 10.5 16ZM10.5 15C10.7761 15 11 14.7761 11 14.5C11 14.2239 10.7761 14 10.5 14C10.2239 14 10 14.2239 10 14.5C10 14.7761 10.2239 15 10.5 15Z" fill="#111418"/>
</svg>

<svg xmlns="http://www.w3.org/2000/svg" viewBox="0 0 16 16">
  <path d="M0 2v12h1.706a.52.52 0 0 0 .443-.257c1.847-3.056 3.803-1.42 4.701.004a.53.53 0 0 0 .444.253h.412a.52.52 0 0 0 .443-.257c1.847-3.056 3.803-1.42 4.701.004a.53.53 0 0 0 .444.253h.982a.3.3 0 0 0 .212-.512L13 12c4.4-2.4 1.833-5 0-6V4l1.146-1.146A.5.5 0 0 0 13.793 2h-3.586a.5.5 0 0 0-.353.854L11 4v2H8V2a1 1 0 0 0-1-1H1a1 1 0 0 0-1 1m1 5h3V2H1zm6 0H5V2h2z"/>
  <path d="M4.5 16a1.5 1.5 0 1 0 0-3 1.5 1.5 0 0 0 0 3m0-1a.5.5 0 1 0 0-1 .5.5 0 0 0 0 1M10.5 16a1.5 1.5 0 1 0 0-3 1.5 1.5 0 0 0 0 3m0-1a.5.5 0 1 0 0-1 .5.5 0 0 0 0 1"/>
</svg>
